public/icons/icon/arrowhead-diamond.svg

<svg width="30" height="30" viewBox="0 0 30 30" fill="none" xmlns="http://www.w3.org/2000/svg">
<path d="M18.4142 3.82822L28.3137 13.7277C29.0948 14.5088 29.0948 15.7751 28.3137 16.5561L18.4142 26.4556C17.6332 27.2367 16.3669 27.2367 15.5858 26.4556L5.68631 16.5561C4.90526 15.7751 4.90526 14.5088 5.68631 13.7277L15.5858 3.82822C16.3669 3.04717 17.6332 3.04717 18.4142 3.82822Z" stroke="black" stroke-width="2"/>
<path d="M1 15H5" stroke="black" stroke-width="2" stroke-linecap="round"/>
</svg>

<svg xmlns="http://www.w3.org/2000/svg" width="30" height="30" fill="none"><path stroke="#000" stroke-width="2" d="m18.414 3.828 9.9 9.9a2 2 0 0 1 0 2.828l-9.9 9.9a2 2 0 0 1-2.828 0l-9.9-9.9a2 2 0 0 1 0-2.828l9.9-9.9a2 2 0 0 1 2.828 0Z"/><path stroke="#000" stroke-linecap="round" stroke-width="2" d="M1 15h4"/></svg>
